packages/IcoMoon/src/ImageIcon/index.svg

<svg version="1.1" xmlns="http://www.w3.org/2000/svg" width="16" height="16" viewBox="0 0 16 16">
<path d="M14.998 2c0.001 0.001 0.001 0.001 0.002 0.002v11.996c-0.001 0.001-0.001 0.001-0.002 0.002h-13.996c-0.001-0.001-0.001-0.001-0.002-0.002v-11.996c0.001-0.001 0.001-0.001 0.002-0.002h13.996zM15 1h-14c-0.55 0-1 0.45-1 1v12c0 0.55 0.45 1 1 1h14c0.55 0 1-0.45 1-1v-12c0-0.55-0.45-1-1-1v0z"></path>
<path d="M13 4.5c0 0.828-0.672 1.5-1.5 1.5s-1.5-0.672-1.5-1.5 0.672-1.5 1.5-1.5 1.5 0.672 1.5 1.5z"></path>
<path d="M14 13h-12v-2l3.5-6 4 5h1l3.5-3z"></path>
</svg>

<svg xmlns="http://www.w3.org/2000/svg" viewBox="0 0 16 16">
  <path d="M14.998 2l.002.002v11.996l-.002.002H1.002L1 13.998V2.002L1.002 2h13.996zM15 1H1c-.55 0-1 .45-1 1v12c0 .55.45 1 1 1h14c.55 0 1-.45 1-1V2c0-.55-.45-1-1-1z"/>
  <path d="M13 4.5a1.5 1.5 0 11-3.001-.001A1.5 1.5 0 0113 4.5zm1 8.5H2v-2l3.5-6 4 5h1L14 7z"/>
</svg>
